shader_type spatial;

uniform sampler2D albedo_tex : source_color;

void vertex() {
	// Called for every vertex the material is visible on.
}

void fragment() {
	ALBEDO = texture(albedo_tex, UV).rgb;
}

//void light() {
//	// Called for every pixel for every light affecting the material.
//	// Uncomment to replace the default light processing function with this one.
//}
